X: 934
T: The Ladies of Carrick.
B:O'Neill's 934
N:"collected by Miss Kennedy."
Z:Transcribed by Tom Keays (htkeays@mailbox.syr.edu)
Z:abc 1.6
M:6/8
R:Jig
L:1/8
K:A
eAA edc | eAA Aaf | eAA edc | fBB Baf |
eAA edc | eAA ef=g | fed edc | fBB Baf :|
|| ecc acc | ecc ef=g | ecc acc | fBB Baf |
ecc acc | ecc ef=g | fed edc | fBB Baf :|


